X:4
T:2025-03-13
M:3/2
L:1/4
K:D
%%Not sure this isn't another 6/8 march!
D E F | F/2F/2 F2 | E F  B |A/2F/2 A2 |
D E F | F/2F/2 F2 | E F E | E/D/2 E2 |
D E F | F/2F/2 F2 | d/2B/2 B/2A/2 A/2B/2 | A2 B^c |
DE F |e dB | A F D | D/2D/2 D2 :|

